X:1
T:Love Found Me
T:Love Found Me
T:Henry Lake Gilmour
T:Henry Lake Gilmour, 1890
T:Public Domain Courtesy of the Cyber Hymnal™
T:Public Domain Courtesy of the Cyber Hymnal™
C:Henry Lake Gilmour
Z:Public Domain
Z:Courtesy of the Cyber Hymnal™
%%score ( 1 2 ) 3
L:1/8
Q:1/4=90
M:4/4
K:F
V:1 treble 
V:2 treble 
V:3 bass 
V:1
 [CF] | [FA][Fc][Fc][Fc] [Fc][Fc] [Fc]2 | [CF]2 [Ec]2 [Fc]3 [Fc] | %3
w: 1.~When|out in sin and dark- ness lost,|Love found me; My|
w: 2.~The|Spir- it roused me from my sleep,|Love found me; Con-|
w: 3.~I’ll|praise Him while He gives me breath,|Love found me; For|
w: 4.~And|when I reach the gold paved street,|Love found me; I’ll|
 [Fd][Fc][Fc][Fc] [FA][FA] [CF]2 | [FA]2 [EG]2 [EG]3 [CF] | [FA][Fc][Fc][Fc] [Fc][Fc] [Fc]2 | %6
w: faint- ing soul was tem- pest tossed,|Love found me; I|heard the Sav- ior’s words so blest,|
w: vic- tion seized me strong and deep,|Love found me; Al-|though I long with- stood His grace,|
w: sav- ing from an end- less death,|Love found me; Christ|is my ad- vo- cate a- bove,|
w: sit a- dor- ing at His feet,|Love found me; And|sing ho- san- nas round the throne,|
 [CF]2 [Ec]2 [Fc]3 [Fc] | [Fd][Fc][Fc][Fc] [FA][FA] [CF]2 | [FA]2 [EG]2 [CF]2 || %9
w: Love found me; Come,|wea- ry, hea- vy la- den, rest,|Love found me.|
w: Love found me; He|wooed me to His kind em- brace,|Love found me.|
w: Love found me; I’m|yoked to Him in per- fect love,|Love found me.|
w: Love found me; Where|I shall know as I am known,|Love found me.|
"^Refrain" [FA][Fc] | F4 [EG]4 | [FA][Fc] [Fc]>[Fc] [Fc][Fc] [FA]2 | [CF]4 [EG]3 F | %13
w: ||||
w: Oh, ’twas|love, love,|Love that moved the mi- ghty God,|Love, love, ’twas|
w: ||||
w: ||||
 [FA]2 [EG]2 F3 |] %14
w: |
w: love found me.|
w: |
w: |
V:2
 x | x8 | x8 | x8 | x8 | x8 | x8 | x8 | x6 || x2 | F4 x4 | x8 | x7 F | x7 |] %14
V:3
 [F,A,] | [F,C][F,A,][F,A,][F,A,] [F,A,][F,A,] [F,A,]2 | [F,A,]2 [C,B,]2 [F,A,]3 [F,A,] | %3
w: ~|~ ~ ~ ~ ~ ~ ~|~ ~ ~ ~|
 [F,B,][F,A,][F,A,][F,A,] [F,C][F,C] [F,A,]2 | [C,C]2 [C,B,]2 [C,B,]3 [F,A,] | %5
w: ~ ~ ~ ~ ~ ~ ~|~ ~ ~ ~|
 [F,C][F,A,][F,A,][F,A,] [F,A,][F,A,] [F,A,]2 | [F,A,]2 [C,B,]2 [F,A,]3 [F,A,] | %7
w: ~ ~ ~ ~ ~ ~ ~|~ ~ ~ ~|
 [F,B,][F,A,][F,A,][F,A,] [F,C][F,C] [F,A,]2 | [C,C]2 [C,B,]2 [F,A,]2 || [F,C][F,A,] | %10
w: ~ ~ ~ ~ ~ ~ ~|~ ~ ~|Oh, ’twas|
 [A,C]2 [A,C]2 [G,D][C,C] [C,C]2 | [F,C][F,A,] [F,A,]>[F,A,] [F,A,][F,A,] [F,C]2 | %12
w: love, ’twas won- drous love,||
 [F,A,]4 [C,C]3 [C,A,] | [C,C]2 [C,B,]2 [F,A,]3 |] %14
w: ||

